images/post.svg

<svg width="24" height="21" viewBox="0 0 24 21" fill="none" xmlns="http://www.w3.org/2000/svg">
<path fill-rule="evenodd" clip-rule="evenodd" d="M-0.91875 2.71667C-0.75492 1.9804 -0.352185 1.32302 0.223498 0.852181C0.79918 0.38134 1.51369 0.124949 2.25 0.125H21.75C22.4863 0.124949 23.2008 0.38134 23.7765 0.852181C24.3522 1.32302 24.7549 1.9804 24.9187 2.71667L12 10.815L-0.91875 2.71667ZM-1 4.62V16.46L8.42988 10.53L-1 4.62ZM9.98663 11.5083L-0.689625 18.22C-0.425844 18.7905 -0.00951922 19.2724 0.510895 19.6096C1.03131 19.9469 1.63441 20.1256 2.25 20.125H21.75C22.3655 20.1251 22.9684 19.946 23.4885 19.6085C24.0086 19.2709 24.4246 18.7889 24.688 18.2183L14.0118 11.5067L12 12.7683L9.98663 11.5067V11.5083ZM15.5701 10.5317L25 16.46V4.62L15.5701 10.53V10.5317Z" fill="#1BA0AB"/>
</svg>

<svg width="24" height="21" fill="none" xmlns="http://www.w3.org/2000/svg"><path fill-rule="evenodd" clip-rule="evenodd" d="M-.919 2.717A3.345 3.345 0 0 1 .223.852 3.2 3.2 0 0 1 2.25.125h19.5a3.2 3.2 0 0 1 2.026.727c.576.471.979 1.128 1.143 1.865L12 10.815-.919 2.717ZM-1 4.62v11.84l9.43-5.93L-1 4.62Zm10.987 6.888L-.69 18.22c.264.57.68 1.052 1.2 1.39a3.19 3.19 0 0 0 1.74.515h19.5c.616 0 1.218-.179 1.738-.517.52-.337.937-.82 1.2-1.39l-10.676-6.711L12 12.768l-2.013-1.261v.001Zm5.583-.976L25 16.46V4.62l-9.43 5.91v.002Z" fill="#1BA0AB"/></svg>
